static/img/menus/ico-descend.svg

<svg width="16" height="16" viewBox="0 0 16 16" fill="none" xmlns="http://www.w3.org/2000/svg">
<g clip-path="url(#clip0_1080_81)">
<path d="M13 3.00195L13 10.002H15L12 14.002L9 10.002H11L11 3.00195H13Z" fill="currentColor"/>
<path d="M3 12H1V13H3V12Z" fill="currentColor"/>
<path d="M5 9H1V10H5V9Z" fill="currentColor"/>
<path d="M7 6H1V7H7V6Z" fill="currentColor"/>
<path d="M9 3H1V4H9V3Z" fill="currentColor"/>
</g>
<defs>
<clipPath id="clip0_1080_81">
<rect width="16" height="16" fill="white"/>
</clipPath>
</defs>
</svg>

<svg xmlns="http://www.w3.org/2000/svg" width="16" height="16" fill="none" viewBox="0 0 16 16"><g fill="currentColor" clip-path="url(#a)"><path d="M13 3.002v7h2l-3 4-3-4h2v-7zM3 12H1v1h2zM5 9H1v1h4zM7 6H1v1h6zM9 3H1v1h8z"/></g><defs><clipPath id="a"><path fill="#fff" d="M0 0h16v16H0z"/></clipPath></defs></svg>
